dashboard/assets/tech/circle9.svg

<svg preserveAspectRatio="none" id="Layer_1" data-name="Layer 1" xmlns="http://www.w3.org/2000/svg" viewBox="0 0 111.67 79.18"><defs><linearGradient id="linear-gradient" x1="90" y1="579.59" x2="90" y2="500.41" gradientUnits="userSpaceOnUse"><stop offset="0" stop-color="#334f7e"/><stop offset=".99" stop-color="#5d85c4"/></linearGradient><style>.cls-1{fill:#3ee497}.cls-2{fill:#e9aa4f}.cls-3{fill:#d13954}.cls-4{fill:#3d6db8}</style></defs><path class="cls-1" d="M44.13 570.92a55.23 55.23 0 01-.13-61.71l1.66 1.12a53.23 53.23 0 00.08 59.47z" transform="translate(-34.67 -500.41)"/><path class="cls-2" d="M136.34 572l-3.34-2.27a52.23 52.23 0 00.34-59l3.31-2.24a56.23 56.23 0 01-.31 63.51z" transform="translate(-34.67 -500.41)"/><path class="cls-3" d="M90 577.83A37.79 37.79 0 0171.43 573l1.48-2.61a34.78 34.78 0 0034.47-.16l1.5 2.6a37.76 37.76 0 01-18.88 5z" transform="translate(-34.67 -500.41)"/><path class="cls-4" d="M72.55 511L70 506.75a38.78 38.78 0 0139.76-.19l-2.55 4.3a33.78 33.78 0 00-34.66.14zM82.66 567.94a29.08 29.08 0 01-17.56-13.42l4.32-2.52a24 24 0 0014.51 11.1z" transform="translate(-34.67 -500.41)"/><path class="cls-3" d="M111.48 527.55a25.06 25.06 0 00-15-11.59l.78-2.9a28.08 28.08 0 0116.85 13z" transform="translate(-34.67 -500.41)"/><path class="cls-2" d="M72.11 529.64l-1.73-1A22.91 22.91 0 0184 518.09l.49 1.91a20.89 20.89 0 00-12.38 9.64z" transform="translate(-34.67 -500.41)"/><path class="cls-1" d="M96.34 562.87L95.26 559a19.88 19.88 0 0011.8-9.21l3.47 2a23.91 23.91 0 01-14.19 11.08z" transform="translate(-34.67 -500.41)"/><path d="M125.59 579.59a4 4 0 01-2.83-1.17L110 565.69l2.83-2.83a32.37 32.37 0 000-45.73l-2.83-2.82 12.73-12.73a4 4 0 015.66 5.66l-7.21 7.21a40.41 40.41 0 010 51.11l7.21 7.21a4 4 0 01-2.8 6.82zm-71.18 0a4 4 0 01-2.83-6.83l7.21-7.21a40.41 40.41 0 010-51.11l-7.21-7.21a4 4 0 015.66-5.66L70 514.31l-2.83 2.83a32.38 32.38 0 000 45.73l2.83 2.82-12.76 12.73a4 4 0 01-2.83 1.17z" transform="translate(-34.67 -500.41)" fill="url(#linear-gradient)"/></svg>

<svg preserveAspectRatio="none" id="Layer_1" data-name="Layer 1" xmlns="http://www.w3.org/2000/svg" xmlns:xlink="http://www.w3.org/1999/xlink" viewBox="0 0 111.67 79.18"><defs><style>.cls-1{fill:#3ee497;}.cls-2{fill:#e9aa4f;}.cls-3{fill:#d13954;}.cls-4{fill:#3d6db8;}.cls-5{fill:url(#linear-gradient);}</style><linearGradient id="linear-gradient" x1="90" y1="579.59" x2="90" y2="500.41" gradientUnits="userSpaceOnUse"><stop offset="0" stop-color="#334f7e"/><stop offset="0.99" stop-color="#5d85c4"/></linearGradient></defs><title>circle9</title><path class="cls-1" d="M44.13,570.92A55.23,55.23,0,0,1,44,509.21l1.66,1.12a53.23,53.23,0,0,0,.08,59.47Z" transform="translate(-34.67 -500.41)"/><path class="cls-2" d="M136.34,572L133,569.73a52.23,52.23,0,0,0,.34-59l3.31-2.24A56.23,56.23,0,0,1,136.34,572Z" transform="translate(-34.67 -500.41)"/><path class="cls-3" d="M90,577.83A37.79,37.79,0,0,1,71.43,573l1.48-2.61a34.78,34.78,0,0,0,34.47-.16l1.5,2.6A37.76,37.76,0,0,1,90,577.83Z" transform="translate(-34.67 -500.41)"/><path class="cls-4" d="M72.55,511L70,506.75a38.78,38.78,0,0,1,39.76-.19l-2.55,4.3A33.78,33.78,0,0,0,72.55,511Z" transform="translate(-34.67 -500.41)"/><path class="cls-4" d="M82.66,567.94A29.08,29.08,0,0,1,65.1,554.52L69.42,552a24,24,0,0,0,14.51,11.1Z" transform="translate(-34.67 -500.41)"/><path class="cls-3" d="M111.48,527.55a25.06,25.06,0,0,0-15-11.59l0.78-2.9a28.08,28.08,0,0,1,16.85,13Z" transform="translate(-34.67 -500.41)"/><path class="cls-2" d="M72.11,529.64l-1.73-1A22.91,22.91,0,0,1,84,518.09L84.49,520A20.89,20.89,0,0,0,72.11,529.64Z" transform="translate(-34.67 -500.41)"/><path class="cls-1" d="M96.34,562.87L95.26,559a19.88,19.88,0,0,0,11.8-9.21l3.47,2A23.91,23.91,0,0,1,96.34,562.87Z" transform="translate(-34.67 -500.41)"/><path class="cls-5" d="M125.59,579.59a4,4,0,0,1-2.83-1.17L110,565.69l2.83-2.83a32.37,32.37,0,0,0,0-45.73L110,514.31l12.73-12.73a4,4,0,0,1,5.66,5.66l-7.21,7.21a40.41,40.41,0,0,1,0,51.11l7.21,7.21A4,4,0,0,1,125.59,579.59Zm-71.18,0a4,4,0,0,1-2.83-6.83l7.21-7.21a40.41,40.41,0,0,1,0-51.11l-7.21-7.21a4,4,0,0,1,5.66-5.66L70,514.31l-2.83,2.83a32.38,32.38,0,0,0,0,45.73L70,565.69,57.24,578.42A4,4,0,0,1,54.41,579.59Z" transform="translate(-34.67 -500.41)"/></svg>
